X:1
T:Der Dreissigste
C:traditionell
R:
A:Bayern
%%textfont Helvetica-Narrow 10pt
%%begintext align
S:gelernt und noten-material von Stefan Straubinger
N:dort ganz in G, zweistimmig, auf einem hand-geschriebenen losen blatt gemeinsam mit "La Larandolo" und "Klarinettenmuckl" 
%%endtext
F:http://simonwascher.info
Z:abc transcription Simon Wascher
L:1/16
M:2/4
K:G
G3B d2g2 | c2e2 B2d2 | A2c2 G2B2 | A2A2 G4 :|
B2d2 A2c2 | G2B2 A2A2 | B2d2 A2c2 | G2B2 A4 |
G3B d2g2 | c2e2 B2d2 | A2c2 G2B2 | A2A2 G4 :|
|:\
BGDG BGDG | AFDF AFDF | B2dc BcBA | G2B2 D4 |
BGDG BGDG | AFDF AFDF | B2dc BcBA | G8 :|
%%wordsfont Times-Italic 11pt
W:aus Simon Waschers TradArchiv
